X:175
T:Kerry Reel
Z: id:dc-reel-162
M:C
L:1/8
K:E Dorian
A|Beed BcdA|B2AF EFGA|Beed BcdA|B2AF D2F:|!
A|Beec d2fd|edBc dBA2|Beec d2fd|edBc d3A|!
Beec d2fd|edBc dBAf|g2ge f2fe|dBAB e3|]!

